src/assets/desktop/usa.svg

<svg width="40" height="29" viewBox="0 0 40 29" fill="none" xmlns="http://www.w3.org/2000/svg">
<g filter="url(#filter0_dd_1220_2753)">
<g clip-path="url(#clip0_1220_2753)">
<rect x="3" y="1.69238" width="34" height="22.6154" rx="2.83333" fill="white"/>
<path d="M37 1.69238H3V24.3078H37V1.69238Z" fill="#B31942"/>
<path d="M3 4.302H37H3ZM37 7.78129H3H37ZM3 11.2606H37H3ZM37 14.7399H3H37ZM3 18.2192H37H3ZM37 21.6985H3H37Z" fill="#090C21"/>
<path d="M3 4.302H37M37 7.78129H3M3 11.2606H37M37 14.7399H3M3 18.2192H37M37 21.6985H3" stroke="white" stroke-width="1.73965"/>
<path d="M20.1877 1.69238H3V13.8699H20.1877V1.69238Z" fill="#0A3161"/>
<path d="M4.43255 2.21411L4.84157 3.47293L3.77075 2.69494H5.09435L4.02354 3.47293L4.43255 2.21411Z" fill="white"/>
<path d="M4.43255 4.64966L4.84157 5.90848L3.77075 5.13048H5.09435L4.02354 5.90848L4.43255 4.64966Z" fill="white"/>
<path d="M4.43255 7.08545L4.84157 8.34427L3.77075 7.56628H5.09435L4.02354 8.34427L4.43255 7.08545Z" fill="white"/>
<path d="M4.43255 9.52051L4.84157 10.7793L3.77075 10.0013H5.09435L4.02354 10.7793L4.43255 9.52051Z" fill="white"/>
<path d="M4.43255 11.9561L4.84157 13.2149L3.77075 12.4369H5.09435L4.02354 13.2149L4.43255 11.9561Z" fill="white"/>
<path d="M5.86468 3.43213L6.2737 4.69095L5.20288 3.91295H6.52648L5.45567 4.69095L5.86468 3.43213Z" fill="white"/>
<path d="M5.86468 5.86768L6.2737 7.12649L5.20288 6.3485H6.52648L5.45567 7.12649L5.86468 5.86768Z" fill="white"/>
<path d="M5.86468 8.30298L6.2737 9.5618L5.20288 8.7838H6.52648L5.45567 9.5618L5.86468 8.30298Z" fill="white"/>
<path d="M5.86468 10.739L6.2737 11.9978L5.20288 11.2198H6.52648L5.45567 11.9978L5.86468 10.739Z" fill="white"/>
<path d="M7.29705 2.21411L7.70607 3.47293L6.63525 2.69494H7.95886L6.88804 3.47293L7.29705 2.21411Z" fill="white"/>
<path d="M7.29705 4.64966L7.70607 5.90848L6.63525 5.13048H7.95886L6.88804 5.90848L7.29705 4.64966Z" fill="white"/>
<path d="M7.29705 7.08545L7.70607 8.34427L6.63525 7.56628H7.95886L6.88804 8.34427L7.29705 7.08545Z" fill="white"/>
<path d="M7.29705 9.52051L7.70607 10.7793L6.63525 10.0013H7.95886L6.88804 10.7793L7.29705 9.52051Z" fill="white"/>
<path d="M7.29705 11.9561L7.70607 13.2149L6.63525 12.4369H7.95886L6.88804 13.2149L7.29705 11.9561Z" fill="white"/>
<path d="M8.72967 3.43213L9.13869 4.69095L8.06787 3.91295H9.39147L8.32066 4.69095L8.72967 3.43213Z" fill="white"/>
<path d="M8.72967 5.86768L9.13869 7.12649L8.06787 6.3485H9.39147L8.32066 7.12649L8.72967 5.86768Z" fill="white"/>
<path d="M8.72967 8.30347L9.13869 9.56229L8.06787 8.78429H9.39147L8.32066 9.56229L8.72967 8.30347Z" fill="white"/>
<path d="M8.72967 10.739L9.13869 11.9978L8.06787 11.2198H9.39147L8.32066 11.9978L8.72967 10.739Z" fill="white"/>
<path d="M10.1618 2.21411L10.5708 3.47293L9.5 2.69494H10.8236L9.75279 3.47293L10.1618 2.21411Z" fill="white"/>
<path d="M10.1618 4.64966L10.5708 5.90848L9.5 5.13048H10.8236L9.75279 5.90848L10.1618 4.64966Z" fill="white"/>
<path d="M10.1618 7.08545L10.5708 8.34427L9.5 7.56628H10.8236L9.75279 8.34427L10.1618 7.08545Z" fill="white"/>
<path d="M10.1618 9.52051L10.5708 10.7793L9.5 10.0013H10.8236L9.75279 10.7793L10.1618 9.52051Z" fill="white"/>
<path d="M10.1618 11.9561L10.5708 13.2149L9.5 12.4369H10.8236L9.75279 13.2149L10.1618 11.9561Z" fill="white"/>
<path d="M11.5942 3.43213L12.0032 4.69095L10.9324 3.91295H12.256L11.1852 4.69095L11.5942 3.43213Z" fill="white"/>
<path d="M11.5942 5.86768L12.0032 7.12649L10.9324 6.3485H12.256L11.1852 7.12649L11.5942 5.86768Z" fill="white"/>
<path d="M11.5942 8.30347L12.0032 9.56229L10.9324 8.78429H12.256L11.1852 9.56229L11.5942 8.30347Z" fill="white"/>
<path d="M11.5942 10.739L12.0032 11.9978L10.9324 11.2198H12.256L11.1852 11.9978L11.5942 10.739Z" fill="white"/>
<path d="M13.0263 2.21411L13.4353 3.47293L12.3645 2.69494H13.6881L12.6173 3.47293L13.0263 2.21411Z" fill="white"/>
<path d="M13.0263 4.64966L13.4353 5.90848L12.3645 5.13048H13.6881L12.6173 5.90848L13.0263 4.64966Z" fill="white"/>
<path d="M13.0263 7.08545L13.4353 8.34427L12.3645 7.56628H13.6881L12.6173 8.34427L13.0263 7.08545Z" fill="white"/>
<path d="M13.0263 9.52051L13.4353 10.7793L12.3645 10.0013H13.6881L12.6173 10.7793L13.0263 9.52051Z" fill="white"/>
<path d="M13.0263 11.9561L13.4353 13.2149L12.3645 12.4369H13.6881L12.6173 13.2149L13.0263 11.9561Z" fill="white"/>
<path d="M14.4589 3.43213L14.8679 4.69095L13.7971 3.91295H15.1207L14.0499 4.69095L14.4589 3.43213Z" fill="white"/>
<path d="M14.4589 5.86768L14.8679 7.12649L13.7971 6.3485H15.1207L14.0499 7.12649L14.4589 5.86768Z" fill="white"/>
<path d="M14.4589 8.30298L14.8679 9.5618L13.7971 8.7838H15.1207L14.0499 9.5618L14.4589 8.30298Z" fill="white"/>
<path d="M14.4589 10.739L14.8679 11.9978L13.7971 11.2198H15.1207L14.0499 11.9978L14.4589 10.739Z" fill="white"/>
<path d="M15.8906 2.21411L16.2996 3.47293L15.2288 2.69494H16.5524L15.4815 3.47293L15.8906 2.21411Z" fill="white"/>
<path d="M15.8906 4.64966L16.2996 5.90848L15.2288 5.13048H16.5524L15.4815 5.90848L15.8906 4.64966Z" fill="white"/>
<path d="M15.8906 7.08545L16.2996 8.34427L15.2288 7.56628H16.5524L15.4815 8.34427L15.8906 7.08545Z" fill="white"/>
<path d="M15.8906 9.52051L16.2996 10.7793L15.2288 10.0013H16.5524L15.4815 10.7793L15.8906 9.52051Z" fill="white"/>
<path d="M15.8906 11.9561L16.2996 13.2149L15.2288 12.4369H16.5524L15.4815 13.2149L15.8906 11.9561Z" fill="white"/>
<path d="M17.3227 3.43213L17.7317 4.69095L16.6609 3.91295H17.9845L16.9137 4.69095L17.3227 3.43213Z" fill="white"/>
<path d="M17.3227 5.86768L17.7317 7.12649L16.6609 6.3485H17.9845L16.9137 7.12649L17.3227 5.86768Z" fill="white"/>
<path d="M17.3227 8.30347L17.7317 9.56229L16.6609 8.78429H17.9845L16.9137 9.56229L17.3227 8.30347Z" fill="white"/>
<path d="M17.3227 10.739L17.7317 11.9978L16.6609 11.2198H17.9845L16.9137 11.9978L17.3227 10.739Z" fill="white"/>
<path d="M18.7556 2.21411L19.1646 3.47293L18.0938 2.69494H19.4174L18.3465 3.47293L18.7556 2.21411Z" fill="white"/>
<path d="M18.7553 4.64966L19.1643 5.90848L18.0935 5.13048H19.4171L18.3463 5.90848L18.7553 4.64966Z" fill="white"/>
<path d="M18.7553 7.08545L19.1643 8.34427L18.0935 7.56628H19.4171L18.3463 8.34427L18.7553 7.08545Z" fill="white"/>
<path d="M18.7553 9.52051L19.1643 10.7793L18.0935 10.0013H19.4171L18.3463 10.7793L18.7553 9.52051Z" fill="white"/>
<path d="M18.7553 11.9561L19.1643 13.2149L18.0935 12.4369H19.4171L18.3463 13.2149L18.7553 11.9561Z" fill="white"/>
</g>
<rect x="3" y="1.69238" width="34" height="22.6154" rx="2.83333" stroke="#A8B7D4" stroke-width="0.0969091" stroke-linejoin="round"/>
</g>
<defs>
<filter id="filter0_dd_1220_2753" x="0.618488" y="0.866319" width="38.763" height="27.3785" filterUnits="userSpaceOnUse" color-interpolation-filters="sRGB">
<feFlood flood-opacity="0" result="BackgroundImageFix"/>
<feColorMatrix in="SourceAlpha" type="matrix" values="0 0 0 0 0 0 0 0 0 0 0 0 0 0 0 0 0 0 127 0" result="hardAlpha"/>
<feOffset dy="1.55545"/>
<feGaussianBlur stdDeviation="1.16659"/>
<feComposite in2="hardAlpha" operator="out"/>
<feColorMatrix type="matrix" values="0 0 0 0 0.258824 0 0 0 0 0.278431 0 0 0 0 0.298039 0 0 0 0.08 0"/>
<feBlend mode="normal" in2="BackgroundImageFix" result="effect1_dropShadow_1220_2753"/>
<feColorMatrix in="SourceAlpha" type="matrix" values="0 0 0 0 0 0 0 0 0 0 0 0 0 0 0 0 0 0 127 0" result="hardAlpha"/>
<feOffset/>
<feGaussianBlur stdDeviation="0.0972155"/>
<feComposite in2="hardAlpha" operator="out"/>
<feColorMatrix type="matrix" values="0 0 0 0 0.258824 0 0 0 0 0.278431 0 0 0 0 0.298039 0 0 0 0.32 0"/>
<feBlend mode="normal" in2="effect1_dropShadow_1220_2753" result="effect2_dropShadow_1220_2753"/>
<feBlend mode="normal" in="SourceGraphic" in2="effect2_dropShadow_1220_2753" result="shape"/>
</filter>
<clipPath id="clip0_1220_2753">
<rect x="3" y="1.69238" width="34" height="22.6154" rx="2.83333" fill="white"/>
</clipPath>
</defs>
</svg>

<svg xmlns="http://www.w3.org/2000/svg" width="40" height="29" fill="none"><g filter="url(#a)"><g clip-path="url(#b)"><rect width="34" height="22.615" x="3" y="1.692" fill="#fff" rx="2.833"/><path fill="#B31942" d="M37 1.692H3v22.616h34z"/><path fill="#090C21" d="M3 4.302h34zm34 3.48H3zM3 11.26h34zm34 3.479H3zM3 18.22h34zm34 3.479H3z"/><path stroke="#fff" stroke-width="1.74" d="M3 4.302h34m0 3.48H3m0 3.479h34m0 3.479H3m0 3.48h34m0 3.479H3"/><path fill="#0A3161" d="M20.188 1.692H3V13.87h17.188z"/><path fill="#fff" d="m4.433 2.214.409 1.259-1.071-.778h1.323l-1.07.778zm0 2.436.409 1.258L3.77 5.13h1.323l-1.07.778zm0 2.435.409 1.26-1.071-.779h1.323l-1.07.778zm0 2.435.409 1.26L3.77 10h1.323l-1.07.778zm0 2.436.409 1.259-1.071-.778h1.323l-1.07.778zm1.432-8.524.409 1.259-1.071-.778h1.323l-1.07.778zm0 2.436.409 1.258-1.071-.778h1.323l-1.07.778zm0 2.435.409 1.259-1.071-.778h1.323l-1.07.778zm0 2.436.409 1.259-1.071-.778h1.323l-1.07.778zm1.432-8.525.41 1.259-1.072-.778H7.96l-1.071.778zm0 2.436.41 1.258-1.072-.778H7.96l-1.071.778zm0 2.435.41 1.26-1.072-.779H7.96l-1.071.778zm0 2.435.41 1.26L6.634 10H7.96l-1.071.778zm0 2.436.41 1.259-1.072-.778H7.96l-1.071.778zM8.73 3.432l.409 1.259-1.071-.778H9.39l-1.07.778zm0 2.436.409 1.258-1.071-.778H9.39l-1.07.778zm0 2.435.409 1.26-1.071-.779H9.39l-1.07.778zm0 2.436.409 1.259-1.071-.778H9.39l-1.07.778zm1.432-8.525.409 1.259L9.5 2.695h1.324l-1.071.778zm0 2.436.409 1.258L9.5 5.13h1.324l-1.071.778zm0 2.435.409 1.26-1.071-.78h1.324l-1.071.778zm0 2.435.409 1.26L9.5 10h1.324l-1.071.778zm0 2.436.409 1.259-1.071-.778h1.324l-1.071.778zm1.432-8.524.41 1.259-1.072-.778h1.324l-1.07.778zm0 2.436.41 1.258-1.072-.778h1.324l-1.07.778zm0 2.435.41 1.26-1.072-.779h1.324l-1.07.778zm0 2.436.41 1.259-1.072-.778h1.324l-1.07.778zm1.432-8.525.41 1.259-1.072-.778h1.324l-1.07.778zm0 2.436.41 1.258-1.072-.778h1.324l-1.07.778zm0 2.435.41 1.26-1.072-.779h1.324l-1.07.778zm0 2.435.41 1.26-1.073-.78h1.324l-1.07.778zm0 2.436.41 1.259-1.072-.778h1.324l-1.07.778zm1.433-8.524.409 1.259-1.07-.778h1.323l-1.071.778zm0 2.436.409 1.258-1.07-.778h1.323l-1.071.778zm0 2.435.409 1.259-1.07-.778h1.323l-1.071.778zm0 2.436.409 1.259-1.07-.778h1.323l-1.071.778zm1.431-8.525.41 1.259-1.071-.778h1.323l-1.07.778zm0 2.436.41 1.258-1.071-.778h1.323l-1.07.778zm0 2.435.41 1.26-1.071-.779h1.323l-1.07.778zm0 2.435.41 1.26-1.071-.78h1.323l-1.07.778zm0 2.436.41 1.259-1.071-.778h1.323l-1.07.778zm1.433-8.524.409 1.259-1.071-.778h1.323l-1.07.778zm0 2.436.409 1.258-1.071-.778h1.323l-1.07.778zm0 2.435.409 1.26-1.071-.779h1.323l-1.07.778zm0 2.436.409 1.259-1.071-.778h1.323l-1.07.778zm1.433-8.525.409 1.259-1.071-.778h1.323l-1.07.778zm-.001 2.436.41 1.258-1.072-.778h1.324l-1.07.778zm0 2.435.41 1.26-1.072-.779h1.324l-1.07.778zm0 2.435.41 1.26-1.073-.78h1.324l-1.07.778zm0 2.436.41 1.259-1.072-.778h1.324l-1.07.778z"/></g><rect width="34" height="22.615" x="3" y="1.692" stroke="#A8B7D4" stroke-linejoin="round" stroke-width=".097" rx="2.833"/></g><defs><clipPath id="b"><rect width="34" height="22.615" x="3" y="1.692" fill="#fff" rx="2.833"/></clipPath><filter id="a" width="38.763" height="27.378" x=".618" y=".866" color-interpolation-filters="sRGB" filterUnits="userSpaceOnUse"><feFlood flood-opacity="0" result="BackgroundImageFix"/><feColorMatrix in="SourceAlpha" result="hardAlpha" values="0 0 0 0 0 0 0 0 0 0 0 0 0 0 0 0 0 0 127 0"/><feOffset dy="1.555"/><feGaussianBlur stdDeviation="1.167"/><feComposite in2="hardAlpha" operator="out"/><feColorMatrix values="0 0 0 0 0.258824 0 0 0 0 0.278431 0 0 0 0 0.298039 0 0 0 0.08 0"/><feBlend in2="BackgroundImageFix" result="effect1_dropShadow_1220_2753"/><feColorMatrix in="SourceAlpha" result="hardAlpha" values="0 0 0 0 0 0 0 0 0 0 0 0 0 0 0 0 0 0 127 0"/><feOffset/><feGaussianBlur stdDeviation=".097"/><feComposite in2="hardAlpha" operator="out"/><feColorMatrix values="0 0 0 0 0.258824 0 0 0 0 0.278431 0 0 0 0 0.298039 0 0 0 0.32 0"/><feBlend in2="effect1_dropShadow_1220_2753" result="effect2_dropShadow_1220_2753"/><feBlend in="SourceGraphic" in2="effect2_dropShadow_1220_2753" result="shape"/></filter></defs></svg>
